X:1
T:Trustingly, Trustingly
T:Trustingly, Trustingly
T:Frederick Charles Maker, 1894
T:Horatius Bonar, 1866, alt.
T:Public Domain Courtesy of the Cyber Hymnal™
C:Frederick Charles Maker, 1894
Z:Public Domain
Z:Courtesy of the Cyber Hymnal™
%%score ( 1 2 ) ( 3 4 )
L:1/8
Q:1/4=107
M:3/4
K:F
V:1 treble 
V:2 treble 
V:3 bass 
V:4 bass 
V:1
 [FA]3 [F^G] [FA]2 | [EG]3 [^D^F] [EG]2 | [DF]2 [DF]2 [DG]2 | [CE]6 | [CF]2 [CF]2 [EG]2 | %5
w: 1.~Trust- ing- ly,|trust- ing- ly,|Je- sus, to|Thee|Come I; Lord,|
w: 2.~Peace- ful- ly,|peace- ful- ly,|Walk I with|Thee:|Je- sus, my|
w: 3.~Whom but Thy-|self, O Lord,|Have I a-|bove?|What have I|
w: 4.~Hap- pi- ly,|hap- pi- ly,|Pass I a-|long;|Ea- ger to|
w: 5.~Hope- ful- ly,|hope- ful- ly,|On- ward I|go;|Cheer- ful- ly,|
 [FA]3 [FA] G2 | [FA]2 [FA]2 [F=B]2 | [Ec]6 | [Fc]2 [Ff]2 [Ge]2 | [Ge]3 [Fd] [Fd]2 | %10
w: lov- ing- ly|Come Thou to|me;|Then I shall|lov- ing- ly,|
w: Lord, Thou art|All, all to|me;|Peace Thou hast|left to us,|
w: left on earth?|On- ly Thy|love!|Come then, O|Sav- ior, come;|
w: work for Thee,|Ear- nest and|strong.|Life is for|ser- vice true,|
w: cheer- ful- ly,|Meet I the|foe.|Crowns are a-|wait- ing us,|
 [EG]2 [EA]2 [EB]2 |"^rall." [Fc]3 C !fermata!C2 | [B,D]2 [DG]2 E2 | F6 |] %14
w: Then I shall|joy- ful- ly,|Walk here with|Thee.|
w: Thy peace hast|giv- en us,|So let it|be.|
w: Come then, O|Spir- it, come,|Heav- en- ly|Dove.|
w: Life is for|bat- tle, too,|Life is for|song.|
w: Glo- ry pre-|pared for us,|Joys o- ver-|flow.|
V:2
 x6 | x6 | x6 | x6 | x6 | x4 G2 | x6 | x6 | x6 | x6 | x6 | x3 C C2 | x4 E2 | F6 |] %14
V:3
 [F,C]3 [F,=B,] [F,C]2 | [C,B,]3 [C,A,] [C,B,]2 | [D,A,]2 [D,A,]2 [B,,B,]2 | [C,G,]6 | %4
 [F,A,]2 [A,C]2 [G,C]2 | [F,C]3 [F,C] [E,C]2 | [F,C]2 [D,D]2 [G,D]2 | C4 B,2 | %8
 [F,A,]2 [A,C]2 [A,^C]2 | [B,^C]3 [B,D] [B,D]2 | [B,C]2 [B,C]2 [B,C]2 | %11
 [A,C]3 [A,,F,] !fermata![A,,F,]2 | [B,,F,]2 [G,,G,]2 [C,B,]2 | [F,,A,]6 |] %14
V:4
 x6 | x6 | x6 | x6 | x6 | x6 | x6 | C,6 | x6 | x6 | x6 | x6 | x6 | x6 |] %14

